!!!SOCIAL_FUNCTION:	songs used in the treatment of the sick
!!!PDT:	1929
!!!OTL: No_46_The_Morning_Shines_on_Manasi_Mountain.krn
!!!REG: Southwest
!!!LANG: Non-Tone
!!!LING_GROUP: Uto-Aztecan
**kern
*staff1
=1-
*clefF4
*k[f#]
*M3/4
4E\
4E\
4F#\
=2
8G\L
8E\J
4F#\
8.F#/L
16BB/Jk
=3||
*M2/4
4E\
8.D/L
16BB/Jk
=4
8E\L
8E\J
8E\L
8E\J
=5
4E\
4r
=6
4E\
4E\
=7
4G\
8.G\L
16E\Jk
=8
4F#\
8.F#/L
16BB/Jk
=9
8.E\L
16E\Jk
8E\
8r
=10
8.E\L
16D\Jk
4E\
=11
4E\
8E\
8r
=12
4E\
4E\
=13
4G\
8.G\L
16E\Jk
=14
4F#\
8.F#\L
16D\Jk
=15
8.E\L
16E\Jk
4D\
=16
4D\
8BB/
8r
=17
8.E\L
16E\Jk
8.E\L
16E\Jk
=18
12G\L
12G\
12G\J
8.G\L
16G\Jk
=19
8.G\L
16F#\Jk
8F#\L
16F#\L
16E\JJ
=20
8.F#\L
16E\Jk
8.E\L
16D\Jk
=21
8.E\L
16D\Jk
8.E\L
16E\Jk
=22
12F#\L
12E\
12D\J
12E\L
12D\
12D\J
=23
4D\
8BB/
8r
=24
8.D\L
16D\Jk
8.D\L
16D\Jk
=25
4G\
12G\L
12F#\
12E\J
=26
4F#\
12F#\L
12E\
12D\J
=27
8.E\L
16D\Jk
8.D/L
32BB/Jkk
32r
=28
8.E\L
16E\Jk
8.D/L
16BB/Jk
=29
12E\L
12E\
12E\J
8.E\L
16E\Jk
=30
8.D\L
16D\Jk
8.E\L
16E\Jk
=31
12D\L
12D\
12D\J
8.E\L
16E\Jk
=32
2D\
==
*-
